icons/dice.svg

<svg width="20" height="20" xmlns="http://www.w3.org/2000/svg"><path d="M16,0 C18.209139,0 20,1.790861 20,4 L20,16 C20,18.209139 18.209139,20 16,20 L4,20 C1.790861,20 0,18.209139 0,16 L0,4 C0,1.790861 1.790861,0 4,0 L16,0 Z M16,2 L4,2 C2.9456382,2 2.08183488,2.81587779 2.00548574,3.85073766 L2,4 L2,16 C2,17.0543618 2.81587779,17.9181651 3.85073766,17.9945143 L4,18 L16,18 C17.0543618,18 17.9181651,17.1841222 17.9945143,16.1492623 L18,16 L18,4 C18,2.9456382 17.1841222,2.08183488 16.1492623,2.00548574 L16,2 Z M15,13 C16.1045695,13 17,13.8954305 17,15 C17,16.1045695 16.1045695,17 15,17 C13.8954305,17 13,16.1045695 13,15 C13,13.8954305 13.8954305,13 15,13 Z M10,8 C11.1045695,8 12,8.8954305 12,10 C12,11.1045695 11.1045695,12 10,12 C8.8954305,12 8,11.1045695 8,10 C8,8.8954305 8.8954305,8 10,8 Z M5,3 C6.1045695,3 7,3.8954305 7,5 C7,6.1045695 6.1045695,7 5,7 C3.8954305,7 3,6.1045695 3,5 C3,3.8954305 3.8954305,3 5,3 Z"/></svg>

<svg width="20" height="20" xmlns="http://www.w3.org/2000/svg" fill="currentColor"><path d="M16 0a4 4 0 0 1 4 4v12a4 4 0 0 1-4 4H4a4 4 0 0 1-4-4V4a4 4 0 0 1 4-4h12Zm0 2H4a2 2 0 0 0-1.995 1.85L2 4v12a2 2 0 0 0 1.85 1.995L4 18h12a2 2 0 0 0 1.995-1.85L18 16V4a2 2 0 0 0-1.85-1.995L16 2Zm-1 11a2 2 0 1 1 0 4 2 2 0 0 1 0-4Zm-5-5a2 2 0 1 1 0 4 2 2 0 0 1 0-4ZM5 3a2 2 0 1 1 0 4 2 2 0 0 1 0-4Z"/></svg>
